X: 7057
T: Chodziła Mania
R: polka
M: 2/4
K: Dminor
[V:V1]"Dm"D2 DE|F2A2|"A"E2FE|D4|
w:Chodziła Mania po łące
[V:V2]D2 DE|F2A2|E2FE|D4|
[V:V1] "F"F2 FA|c6/ A|"Gm"B2 BA|
w:Chodziła Mania po łące
[V:V2] F2 FG|A6/ F|G2 GF|
[V:V1]"C"G2 GA|B2B2|"A"A2 AG|
w:Zbierała kwiaty pachnące
[V:V2]C2 CE|G2G2|F2 FE|
[V:V1]"Dm"D2 DE|F2A2|"A"E2F2|D4||
w:Zbierała kwiaty pachnące
[V:V2]D2 DE|F2A2|E2F2|D4||

